app/img/header/back-call-icon-mobile.svg

<svg width="12" height="9" viewBox="0 0 12 9" fill="none" xmlns="http://www.w3.org/2000/svg">
<path d="M7.53132 8.40928L7.53114 8.40946C7.40898 8.531 7.21189 8.531 7.08973 8.40946L7.08919 8.40892C7.02893 8.34804 6.99833 8.26822 6.99833 8.1884C6.99833 8.10852 7.02899 8.0285 7.08998 7.96752L10.3749 4.68258H1.37143C1.19912 4.68258 1.05932 4.54278 1.05932 4.37047C1.05932 4.19816 1.19912 4.05837 1.37143 4.05837H10.3749L7.08998 0.773003C7.08997 0.773002 7.08997 0.773001 7.08997 0.772999C6.9682 0.651225 6.9682 0.453435 7.08998 0.331663C7.21175 0.209888 7.40954 0.209888 7.53132 0.331663L7.53132 0.331671L11.3485 4.14967C11.378 4.17873 11.4014 4.2135 11.4171 4.25248L11.3243 4.28987M7.53132 8.40928L11.3488 4.59178C11.378 4.56264 11.4006 4.52799 11.4163 4.49113L11.4163 4.49113L11.4166 4.49049C11.4486 4.41406 11.4486 4.32774 11.4166 4.2513L11.3243 4.28987M7.53132 8.40928L11.3488 4.59178L7.53132 8.40928ZM11.3243 4.28987C11.346 4.34163 11.346 4.40017 11.3243 4.45192L11.2781 4.22073C11.298 4.24024 11.3137 4.26357 11.3243 4.28987Z" fill="black" stroke="black" stroke-width="0.2"/>
</svg>

<svg width="12" height="9" fill="none" xmlns="http://www.w3.org/2000/svg"><path d="M7.531 8.41h0a.313.313 0 01-.441 0v-.001a.313.313 0 010-.441l3.285-3.285H1.37a.312.312 0 010-.625h9.004L7.09.773s0 0 0 0a.312.312 0 01.441-.441h0l3.817 3.818c.03.029.053.063.07.102l-.094.038M7.531 8.41l3.818-3.818a.318.318 0 00.067-.1h0V4.49a.31.31 0 000-.239l-.092.039M7.531 8.41l3.818-3.818L7.53 8.409zm3.793-4.12a.21.21 0 010 .162l-.046-.231c.02.02.036.043.046.069z" fill="#000" stroke="#000" stroke-width=".2"/></svg>
